X: 141
T:Three Sea Captains
N: page 46
N: heptatonic
N: matches 291
R: Jig
M:6/8
L:1/8
K:G
D|"G"G2G BGB|"D"c2A F2D|"G"G2G BGB|d2B GAB|\
"Am"cec "D"A2c|"G"B/c/dB G2B|"Am"A2B c2B|ABG FED|
"G"G2G BGB|"D"c2A F2D|"G"G2G BGB|d2B GAB|\
"Am"cec "D"A2c|"G"BdB G2F|"C"EcB "D"AGF|"G"G3 G2:|
d|"G"g2g dcB|"D7"ABc def|"G"g2g "Am"dBd|"D"ecA A2f|\
"G"g2a bge|"D"f2g afd|
"G"e2fg2f| "D"ed^c d3| "Am"=cAc dcB|"G"BAB dBG|\
"Am"A2B c2B|ABG "D"FED| "G"G2G BGB|
"D"c2A F2D|"G"G2G BGB|d2B GAB|\
"Am"cec A2c|"G"B/c/dB G2F|"Am"EcB "D"AGF|"G"G3 G2|
